icons/desktop/16/svg/tracking-cookies-slash-fill-16.svg

<svg width="16" height="16" viewBox="0 0 16 16" fill="none" xmlns="http://www.w3.org/2000/svg">
<path fill-rule="evenodd" clip-rule="evenodd" d="M0.219727 0.220703C0.512616 -0.0721698 0.987384 -0.0721698 1.28027 0.220703L15.7803 14.7207C16.0732 15.0136 16.0732 15.4884 15.7803 15.7812C15.4874 16.0741 15.0126 16.0741 14.7197 15.7812L13.082 14.1436C11.6778 15.3104 9.89297 16.001 8 16.001C3.589 16.001 0 12.412 0 8.00098C5.33918e-06 6.06495 0.693814 4.28955 1.84277 2.9043L0.219727 1.28125C-0.0731514 0.988356 -0.0731616 0.513591 0.219727 0.220703ZM9.875 10.001C9.25369 10.001 8.75002 10.5047 8.75 11.126C8.75 11.7473 9.25368 12.251 9.875 12.251C10.4963 12.251 11 11.7473 11 11.126C11 10.5047 10.4963 10.001 9.875 10.001ZM5 8.25098C4.30965 8.25098 3.75002 8.81063 3.75 9.50098C3.75 10.1913 4.30964 10.751 5 10.751C5.69036 10.751 6.25 10.1913 6.25 9.50098C6.24998 8.81063 5.69035 8.25098 5 8.25098Z" fill="black"/>
<path d="M8.00098 0C8.44683 0 8.90274 0.0419642 9.39355 0.128906C9.76143 0.193884 10.0255 0.518764 10.0137 0.891602C10.0127 0.919602 10.004 1.00913 10 1.03613C10.0011 2.46608 11.0902 3.73985 12.5352 3.96484C12.7701 4.00287 12.974 4.14843 13.084 4.3584L13.3652 4.89355C13.4822 5.1154 13.4801 5.38068 13.3604 5.60059C13.1224 6.03858 13.001 6.50998 13.001 7.00098C13.001 8.27098 13.8173 9.40524 15.0312 9.82324C15.2231 9.88926 15.3798 10.0291 15.4658 10.2119C15.5518 10.3949 15.5612 10.606 15.4902 10.7949C15.3233 11.2408 15.11 11.6577 14.8721 12.0586L3.93652 1.12207C5.12943 0.414199 6.51614 1.09882e-05 8.00098 0Z" fill="black"/>
</svg>

<!-- This Source Code Form is subject to the terms of the Mozilla Public
   - License, v. 2.0. If a copy of the MPL was not distributed with this
   - file, You can obtain one at http://mozilla.org/MPL/2.0/. -->
<svg xmlns="http://www.w3.org/2000/svg" width="16" height="16" fill="context-fill" fill-opacity="context-fill-opacity" viewBox="0 0 16 16">
    <path fill-rule="evenodd" d="M.22.22a.75.75 0 0 1 1.06 0l14.5 14.5a.75.75 0 1 1-1.06 1.061l-1.638-1.637A7.96 7.96 0 0 1 8 16c-4.411 0-8-3.589-8-8C0 6.065.694 4.29 1.843 2.904L.22 1.281a.75.75 0 0 1 0-1.06m9.655 9.781a1.125 1.125 0 1 0 0 2.25 1.125 1.125 0 0 0 0-2.25M5 8.251a1.25 1.25 0 1 0 0 2.5 1.25 1.25 0 0 0 0-2.5" clip-rule="evenodd" />
    <path d="M8.001 0c.446 0 .902.042 1.393.129a.75.75 0 0 1 .62.763 2 2 0 0 1-.014.144c.001 1.43 1.09 2.704 2.535 2.929a.76.76 0 0 1 .549.393l.281.536a.75.75 0 0 1-.005.707c-.238.438-.359.909-.359 1.4 0 1.27.816 2.404 2.03 2.822a.75.75 0 0 1 .46.972 8 8 0 0 1-.619 1.264L3.937 1.122A7.94 7.94 0 0 1 8 0" />
</svg>
